X:70
T: Atlantic Wave
M: 4/4
L: 1/8
S: Luke O'Malley vol 1
Z: B.Black
R: reel
K: G
(3DEF | G2 BG dGBG | cBcd efge | d2 BG DGBG |\
(3FED AD BDAF |
G2 BG dGBG | cBcd efge | dgfg ecAF |\
G2 GF G2 :|
(3def | g2 fg ed^ce | dfab afdf | bagf gdBG |\
(3FED AD BDAF |
G2 BG dGBG | cBcd efge | dgfg ecAF |\
G2 GF G2 :|
